logo/bem.svg

<?xml version="1.0" encoding="UTF-8" standalone="no"?>
<svg width="256px" height="212px" viewBox="0 0 256 212" version="1.1" xmlns="http://www.w3.org/2000/svg" xmlns:xlink="http://www.w3.org/1999/xlink" preserveAspectRatio="xMidYMid">
	<g fill="#010101">
		<path d="M0,32.6915521 L59.8506876,32.6915521 L59.8506876,50.2946955 L0,50.2946955 L0,32.6915521 Z M0,0 L59.8506876,0 L59.8506876,17.6031434 L0,17.6031434 L0,0 Z M107.379175,65.1316306 L0,65.1316306 L0,82.7347741 L103.355599,82.7347741 C114.671906,82.7347741 141.076621,82.9862475 150.884086,98.8290766 L150.884086,89.021611 C146.10609,73.4302554 132.023576,65.1316306 107.379175,65.1316306 L107.379175,65.1316306 Z M107.630648,97.8231827 L1.42108547e-14,97.8231827 L1.42108547e-14,115.426326 L103.355599,115.426326 C128.502947,115.426326 144.345776,116.43222 150.884086,119.952849 L150.884086,112.157171 C145.854617,99.8349705 124.730845,97.8231827 107.630648,97.8231827 L107.630648,97.8231827 Z M107.379175,180.80943 L0,180.80943 L0,163.206287 L103.355599,163.206287 C114.671906,163.206287 141.076621,162.954813 150.884086,147.111984 L150.884086,156.91945 C146.10609,172.510806 132.023576,180.80943 107.379175,180.80943 L107.379175,180.80943 Z M107.630648,148.117878 L1.42108547e-14,148.117878 L1.42108547e-14,130.514735 L103.355599,130.514735 C128.502947,130.514735 144.345776,129.508841 150.884086,125.988212 L150.884086,133.78389 C145.854617,146.10609 124.730845,148.117878 107.630648,148.117878 L107.630648,148.117878 Z M177.037328,211.237721 L256,211.237721 L256,200.424361 L179.300589,200.424361 C172.510806,200.424361 156.416503,200.172888 150.632613,190.868369 L150.632613,196.903733 C153.398821,206.208251 161.948919,211.237721 177.037328,211.237721 L177.037328,211.237721 Z M176.785855,191.371316 L255.748527,191.371316 L255.748527,180.557957 L179.300589,180.557957 C163.960707,180.557957 154.404715,180.05501 150.632613,177.791749 L150.632613,182.569745 C153.650295,190.113949 166.475442,191.371316 176.785855,191.371316 L176.785855,191.371316 Z"></path>
	</g>
</svg>

<svg viewBox="0 0 256 212" xmlns="http://www.w3.org/2000/svg"><path fill="#010101" d="M0 32.69h59.85v17.6H-.01V32.68ZM0-.01h59.85v17.6H-.01V-.02Zm107.37 65.13H-.01v17.6h103.35c11.31 0 37.72.25 47.52 16.09V89c-4.78-15.6-18.87-23.89-43.51-23.89v0Zm.25 32.69H-.02v17.6h103.35c25.14 0 40.99 1 47.52 4.52v-7.8c-5.03-12.33-26.16-14.34-43.26-14.34v0Zm-.26 82.98H-.02v-17.61h103.35c11.31 0 37.72-.26 47.52-16.1v9.8c-4.78 15.59-18.87 23.88-43.51 23.88v0Zm.25-32.7H-.03v-17.61h103.35c25.14 0 40.99-1.01 47.52-4.53v7.79c-5.03 12.32-26.16 14.33-43.26 14.33v0Zm69.4 63.11h78.96v-10.82h-76.7c-6.79 0-22.89-.26-28.67-9.56v6.03c2.76 9.3 11.31 14.33 26.4 14.33v0Zm-.26-19.87h78.96v-10.82h-76.45c-15.34 0-24.9-.51-28.67-2.77v4.77c3.01 7.54 15.84 8.8 26.15 8.8v0Z"/></svg>
